X:9
T:Wohlfahrt 9
C:Franz Wohlfahrt / K.H. Aiquoni
L:1/8
Q:1/4=120
M:3/4
I:linebreak $
K:F
"F" cBABcd | cBABcd | cBABcd | efgaba |"C7" gabagf | efgfed | cdedcB | ABcdcB |$"F" ABcdcB | 
ABcdcB | ABcdef | gabagf |"C7" efgaba | gfedcB | AGFEDE |"F" FA,B,CDE ||$"F" FAcfed |"C7" cBegab | 
"F" afcAGF |"C7" EGFEDE |"F" FAcfed |"C7" cBegab |"F" afcAGF |"C7" EGFEDE |$"F" FA,CFAF | 
"C7" EG,B,EAG |"F" FA,CFAF |"C7" EG,B,EAG |"F" FA cf ga |"C7" bg ec BG |"F" FA cf cA | F2 z4 |] 



